Origami/22x22/apps/kube.svg

<svg width="22" height="22" version="1" xmlns="http://www.w3.org/2000/svg">
 <rect transform="matrix(0,-1,-1,0,0,0)" x="-21" y="-21" width="20" height="20" rx="1" ry="1" style="fill:#ef5a30"/>
 <path d="m5 4.5v14h3v-2.700196l1.5 2.700196h3.5l-2.5-4.5 2.5-4.5h-3.5l-1.5 2.700196v-7.700196h-3zm9 5-2.5 4.5 2.5 4.5h3.5l-2.5-4.5 2.5-4.5h-3.5z" style="opacity:.2"/>
 <path d="m2 1c-0.554 0-1 0.446-1 1v0.5c0-0.554 0.446-1 1-1h18c0.554 0 1 0.446 1 1v-0.5c0-0.554-0.446-1-1-1h-18z" style="fill:#ffffff;opacity:.2"/>
 <path d="m2 21.5c-0.554 0-1-0.446-1-1v-0.5c0 0.554 0.446 1 1 1h18c0.554 0 1-0.446 1-1v0.5c0 0.554-0.446 1-1 1h-18z" style="opacity:.2"/>
 <path d="m8 4h-3v14h3z" style="fill:#ffffff"/>
 <path d="m9.5 9-2.5 4.5 2.5 4.5h3.5l-2.5-4.5 2.5-4.5z" style="fill:#ffffff"/>
 <path d="m14 9-2.5 4.5 2.5 4.5h3.5l-2.5-4.5 2.5-4.5z" style="fill:#ffffff"/>
</svg>

<svg xmlns="http://www.w3.org/2000/svg" width="22" height="22" version="1">
 <rect style="fill:#ef5a30" width="20" height="20" x="-21" y="-21" rx="1" ry="1" transform="matrix(0,-1,-1,0,0,0)"/>
 <path style="opacity:0.2" d="m 5,4.5 0,14 3,0 L 8,15.799804 9.5,18.5 13,18.5 10.5,14 13,9.5 9.5,9.5 8,12.200196 8,4.5 5,4.5 Z m 9,5 -2.5,4.5 2.5,4.5 3.5,0 L 15,14 17.5,9.5 14,9.5 Z"/>
 <path style="opacity:0.2;fill:#ffffff" d="M 2,1 C 1.446,1 1,1.446 1,2 l 0,0.5 c 0,-0.554 0.446,-1 1,-1 l 18,0 c 0.554,0 1,0.446 1,1 L 21,2 C 21,1.446 20.554,1 20,1 L 2,1 Z"/>
 <path style="opacity:0.2" d="m 2,21.5 c -0.554,0 -1,-0.446 -1,-1 L 1,20 c 0,0.554 0.446,1 1,1 l 18,0 c 0.554,0 1,-0.446 1,-1 l 0,0.5 c 0,0.554 -0.446,1 -1,1 l -18,0 z"/>
 <path style="fill:#ffffff" d="M 8,4 5,4 5,18 8,18 Z"/>
 <path style="fill:#ffffff" d="M 9.5,9 7,13.5 9.5,18 13,18 10.5,13.5 13,9 Z"/>
 <path style="fill:#ffffff" d="M 14,9 11.5,13.5 14,18 17.5,18 15,13.5 17.5,9 Z"/>
</svg>
